src/components/Icon/utils/svgsOptimized/home.svg

<svg width="24" height="24" viewBox="0 0 24 24"  xmlns="http://www.w3.org/2000/svg">
<path d="M12.5304 3.96967C12.2375 3.67678 11.7626 3.67678 11.4697 3.96967L2.46969 12.9697C2.25519 13.1842 2.19103 13.5068 2.30711 13.787C2.4232 14.0673 2.69668 14.25 3.00002 14.25H5.75002V19.5C5.75002 19.9142 6.08581 20.25 6.50002 20.25H10C10.4142 20.25 10.75 19.9142 10.75 19.5V14.25H13.25V19.5C13.25 19.9142 13.5858 20.25 14 20.25H17.5C17.9142 20.25 18.25 19.9142 18.25 19.5V14.25H21C21.3034 14.25 21.5768 14.0673 21.6929 13.787C21.809 13.5068 21.7449 13.1842 21.5304 12.9697L12.5304 3.96967Z" />
</svg>

<?xml version="1.0" encoding="utf-8"?><svg width="24" height="24" xmlns="http://www.w3.org/2000/svg" viewBox="0 0 24 24"><path d="M12.53 3.97a.75.75 0 0 0-1.06 0l-9 9A.75.75 0 0 0 3 14.25h2.75v5.25c0 .414.336.75.75.75H10a.75.75 0 0 0 .75-.75v-5.25h2.5v5.25c0 .414.336.75.75.75h3.5a.75.75 0 0 0 .75-.75v-5.25H21a.75.75 0 0 0 .53-1.28l-9-9Z"/></svg>
